X: 27509
T: Mom's
R: jig
M: 6/8
K: Adorian
|:EAA AGA|B2G A2G|EAA AGA|~B3 BAG|
EAA AGA|B2G A2f|~g3 gfe|dBG BAG:|
|:~a3 ~g3|~f3 edB|~a3 g2e|dBG BAG|
~a3 ~g3|fed edB|ABc Bcd|cde dBG:|

